images/portal/4719.svg

<?xml version="1.0" standalone="no"?><!DOCTYPE svg PUBLIC "-//W3C//DTD SVG 1.1//EN" "http://www.w3.org/Graphics/SVG/1.1/DTD/svg11.dtd"><svg xmlns:xlink="http://www.w3.org/1999/xlink" version="1.1" class="highcharts-root" style="font-family:Arial;font-size:12px;" xmlns="http://www.w3.org/2000/svg" width="485" height="415"><desc>Created with Highcharts 5.0.7</desc><defs><clipPath id="highcharts-q2ops65-1"><rect x="0" y="0" width="260" height="263" fill="none"></rect></clipPath></defs><rect fill="#fbfbfb" class="highcharts-background" x="0" y="0" width="485" height="415" rx="0" ry="0"></rect><rect fill="none" class="highcharts-plot-background" x="53" y="87" width="260" height="263"></rect><g class="highcharts-grid highcharts-xaxis-grid "><path fill="none" class="highcharts-grid-line" d="M 104.5 87 L 104.5 350" opacity="1"></path><path fill="none" class="highcharts-grid-line" d="M 156.5 87 L 156.5 350" opacity="1"></path><path fill="none" class="highcharts-grid-line" d="M 208.5 87 L 208.5 350" opacity="1"></path><path fill="none" class="highcharts-grid-line" d="M 260.5 87 L 260.5 350" opacity="1"></path><path fill="none" class="highcharts-grid-line" d="M 312.5 87 L 312.5 350" opacity="1"></path><path fill="none" class="highcharts-grid-line" d="M 52.5 87 L 52.5 350" opacity="1"></path></g><g class="highcharts-grid highcharts-yaxis-grid "><path fill="none" stroke="#e6e6e6" stroke-width="1" class="highcharts-grid-line" d="M 53 350.5 L 313 350.5" opacity="1"></path><path fill="none" stroke="#e6e6e6" stroke-width="1" class="highcharts-grid-line" d="M 53 324.5 L 313 324.5" opacity="1"></path><path fill="none" stroke="#e6e6e6" stroke-width="1" class="highcharts-grid-line" d="M 53 297.5 L 313 297.5" opacity="1"></path><path fill="none" stroke="#e6e6e6" stroke-width="1" class="highcharts-grid-line" d="M 53 271.5 L 313 271.5" opacity="1"></path><path fill="none" stroke="#e6e6e6" stroke-width="1" class="highcharts-grid-line" d="M 53 245.5 L 313 245.5" opacity="1"></path><path fill="none" stroke="#e6e6e6" stroke-width="1" class="highcharts-grid-line" d="M 53 219.5 L 313 219.5" opacity="1"></path><path fill="none" stroke="#e6e6e6" stroke-width="1" class="highcharts-grid-line" d="M 53 192.5 L 313 192.5" opacity="1"></path><path fill="none" stroke="#e6e6e6" stroke-width="1" class="highcharts-grid-line" d="M 53 166.5 L 313 166.5" opacity="1"></path><path fill="none" stroke="#e6e6e6" stroke-width="1" class="highcharts-grid-line" d="M 53 140.5 L 313 140.5" opacity="1"></path><path fill="none" stroke="#e6e6e6" stroke-width="1" class="highcharts-grid-line" d="M 53 113.5 L 313 113.5" opacity="1"></path><path fill="none" stroke="#e6e6e6" stroke-width="1" class="highcharts-grid-line" d="M 53 86.5 L 313 86.5" opacity="1"></path></g><rect fill="none" class="highcharts-plot-border" x="53" y="87" width="260" height="263"></rect><g class="highcharts-axis highcharts-xaxis "><path fill="none" class="highcharts-tick" stroke="#FFFFFF" stroke-width="1" d="M 104.5 350 L 104.5 360" opacity="1"></path><path fill="none" class="highcharts-tick" stroke="#FFFFFF" stroke-width="1" d="M 156.5 350 L 156.5 360" opacity="1"></path><path fill="none" class="highcharts-tick" stroke="#FFFFFF" stroke-width="1" d="M 208.5 350 L 208.5 360" opacity="1"></path><path fill="none" class="highcharts-tick" stroke="#FFFFFF" stroke-width="1" d="M 260.5 350 L 260.5 360" opacity="1"></path><path fill="none" class="highcharts-tick" stroke="#FFFFFF" stroke-width="1" d="M 313.5 350 L 313.5 360" opacity="1"></path><path fill="none" class="highcharts-tick" stroke="#FFFFFF" stroke-width="1" d="M 52.5 350 L 52.5 360" opacity="1"></path><path fill="none" class="highcharts-axis-line" stroke="#ccd6eb" stroke-width="1" d="M 53 350.5 L 313 350.5"></path></g><g class="highcharts-axis highcharts-yaxis "><path fill="none" class="highcharts-axis-line" d="M 53 87 L 53 350"></path></g><g class="highcharts-series-group"><g class="highcharts-series highcharts-series-0 highcharts-column-series highcharts-color-undefined highcharts-tracker" transform="translate(53,87) scale(1 1)" clip-path="url(#highcharts-q2ops65-1)"><rect x="13.5" y="204.5" width="25" height="59" fill="#007A2F" class="highcharts-point" stroke="#ffffff" stroke-width="1"></rect><rect x="65.5" y="202.5" width="25" height="61" fill="#007A2F" class="highcharts-point" stroke="#ffffff" stroke-width="1"></rect><rect x="117.5" y="212.5" width="25" height="51" fill="#007A2F" class="highcharts-point" stroke="#ffffff" stroke-width="1"></rect><rect x="169.5" y="195.5" width="25" height="68" fill="#007A2F" class="highcharts-point" stroke="#ffffff" stroke-width="1"></rect><rect x="221.5" y="201.5" width="25" height="62" fill="#007A2F" class="highcharts-point" stroke="#ffffff" stroke-width="1"></rect></g><g class="highcharts-markers highcharts-series-0 highcharts-column-series highcharts-color-undefined " transform="translate(53,87) scale(1 1)" clip-path="none"></g><g class="highcharts-series highcharts-series-1 highcharts-column-series highcharts-color-undefined highcharts-tracker" transform="translate(53,87) scale(1 1)" clip-path="url(#highcharts-q2ops65-1)"><rect x="13.5" y="83.5" width="25" height="121" fill="#73BA7C" class="highcharts-point" stroke="#ffffff" stroke-width="1"></rect><rect x="65.5" y="78.5" width="25" height="124" fill="#73BA7C" class="highcharts-point" stroke="#ffffff" stroke-width="1"></rect><rect x="117.5" y="82.5" width="25" height="130" fill="#73BA7C" class="highcharts-point" stroke="#ffffff" stroke-width="1"></rect><rect x="169.5" y="73.5" width="25" height="122" fill="#73BA7C" class="highcharts-point" stroke="#ffffff" stroke-width="1"></rect><rect x="221.5" y="63.5" width="25" height="138" fill="#73BA7C" class="highcharts-point" stroke="#ffffff" stroke-width="1"></rect></g><g class="highcharts-markers highcharts-series-1 highcharts-column-series highcharts-color-undefined " transform="translate(53,87) scale(1 1)" clip-path="none"></g><g class="highcharts-series highcharts-series-2 highcharts-column-series highcharts-color-undefined highcharts-tracker" transform="translate(53,87) scale(1 1)" clip-path="url(#highcharts-q2ops65-1)"><rect x="13.5" y="72.5" width="25" height="11" fill="#C8C8C8" class="highcharts-point" stroke="#ffffff" stroke-width="1"></rect><rect x="65.5" y="68.5" width="25" height="10" fill="#C8C8C8" class="highcharts-point" stroke="#ffffff" stroke-width="1"></rect><rect x="117.5" y="67.5" width="25" height="15" fill="#C8C8C8" class="highcharts-point" stroke="#ffffff" stroke-width="1"></rect><rect x="169.5" y="66.5" width="25" height="7" fill="#C8C8C8" class="highcharts-point" stroke="#ffffff" stroke-width="1"></rect><rect x="221.5" y="54.5" width="25" height="9" fill="#C8C8C8" class="highcharts-point" stroke="#ffffff" stroke-width="1"></rect></g><g class="highcharts-markers highcharts-series-2 highcharts-column-series highcharts-color-undefined " transform="translate(53,87) scale(1 1)" clip-path="none"></g><g class="highcharts-series highcharts-series-3 highcharts-column-series highcharts-color-undefined highcharts-tracker" transform="translate(53,87) scale(1 1)" clip-path="url(#highcharts-q2ops65-1)"><rect x="13.5" y="16.5" width="25" height="56" fill="#FFBB58" class="highcharts-point" stroke="#ffffff" stroke-width="1"></rect><rect x="65.5" y="14.5" width="25" height="54" fill="#FFBB58" class="highcharts-point" stroke="#ffffff" stroke-width="1"></rect><rect x="117.5" y="14.5" width="25" height="53" fill="#FFBB58" class="highcharts-point" stroke="#ffffff" stroke-width="1"></rect><rect x="169.5" y="14.5" width="25" height="52" fill="#FFBB58" class="highcharts-point" stroke="#ffffff" stroke-width="1"></rect><rect x="221.5" y="9.5" width="25" height="45" fill="#FFBB58" class="highcharts-point" stroke="#ffffff" stroke-width="1"></rect></g><g class="highcharts-markers highcharts-series-3 highcharts-column-series highcharts-color-undefined " transform="translate(53,87) scale(1 1)" clip-path="none"></g><g class="highcharts-series highcharts-series-4 highcharts-column-series highcharts-color-undefined highcharts-tracker" transform="translate(53,87) scale(1 1)" clip-path="url(#highcharts-q2ops65-1)"><rect x="13.5" y="-0.5" width="25" height="17" fill="#FF8028" class="highcharts-point" stroke="#ffffff" stroke-width="1"></rect><rect x="65.5" y="-0.5" width="25" height="15" fill="#FF8028" class="highcharts-point" stroke="#ffffff" stroke-width="1"></rect><rect x="117.5" y="-0.5" width="25" height="15" fill="#FF8028" class="highcharts-point" stroke="#ffffff" stroke-width="1"></rect><rect x="169.5" y="-0.5" width="25" height="15" fill="#FF8028" class="highcharts-point" stroke="#ffffff" stroke-width="1"></rect><rect x="221.5" y="-0.5" width="25" height="10" fill="#FF8028" class="highcharts-point" stroke="#ffffff" stroke-width="1"></rect></g><g class="highcharts-markers highcharts-series-4 highcharts-column-series highcharts-color-undefined " transform="translate(53,87) scale(1 1)" clip-path="none"></g></g><text x="10" text-anchor="start" class="highcharts-title" style="color:#000000;font-size:14px;font-weight:bold;fill:#000000;" y="21"><tspan>I.50.1.0013 Menschen aus verschiedenen Ländern sind eine</tspan><tspan dy="17" x="10">Bereicherung für den Kanton</tspan><title>I.50.1.0013 Menschen aus verschiedenen Ländern sind eine Bereicherung für den Kanton</title></text><text x="10" text-anchor="start" class="highcharts-subtitle" style="color:#000000;font-size:12px;fill:#000000;" y="57"><tspan>«Im Kanton Basel-Stadt gibt es Menschen aus den verschiedensten Ländern.</tspan><tspan dy="15" x="10">Ist das eine Bereicherung für den Kanton?»</tspan><title>«Im Kanton Basel-Stadt gibt es Menschen aus den verschiedensten Ländern. Ist das eine Bereicherung für den Kanton?»</title></text><g class="highcharts-legend" transform="translate(325,107)"><rect fill="none" class="highcharts-legend-box" rx="0" ry="0" x="0" y="0" width="149" height="181" visibility="visible"></rect><g><g><g class="highcharts-legend-item highcharts-column-series highcharts-color-undefined highcharts-series-4" transform="translate(8,3)"><text x="21" style="color:#333333;font-size:12px;font-weight:normal;cursor:pointer;fill:#333333;" text-anchor="start" y="15"><tspan>Gar keine </tspan><tspan dy="15" x="21">Bereicherung</tspan><title>Gar keine  Bereicherung</title></text><rect x="2" y="4" width="12" height="12" fill="#FF8028" class="highcharts-point"></rect></g><g class="highcharts-legend-item highcharts-column-series highcharts-color-undefined highcharts-series-3" transform="translate(8,37)"><text x="21" y="15" style="color:#333333;font-size:12px;font-weight:normal;cursor:pointer;fill:#333333;" text-anchor="start"><tspan>Eher nicht so grosse </tspan><tspan dy="15" x="21">Bereicherung</tspan><title>Eher nicht so grosse  Bereicherung</title></text><rect x="2" y="4" width="12" height="12" fill="#FFBB58" class="highcharts-point"></rect></g><g class="highcharts-legend-item highcharts-column-series highcharts-color-undefined highcharts-series-2" transform="translate(8,71)"><text x="21" y="15" style="color:#333333;font-size:12px;font-weight:normal;cursor:pointer;fill:#333333;" text-anchor="start"><tspan>Weiss nicht /</tspan><tspan x="21" dy="15">keine Angabe</tspan></text><rect x="2" y="4" width="12" height="12" fill="#C8C8C8" class="highcharts-point"></rect></g><g class="highcharts-legend-item highcharts-column-series highcharts-color-undefined highcharts-series-1" transform="translate(8,105)"><text x="21" y="15" style="color:#333333;font-size:12px;font-weight:normal;cursor:pointer;fill:#333333;" text-anchor="start"><tspan>Eher grosse </tspan><tspan dy="15" x="21">Bereicherung</tspan><title>Eher grosse  Bereicherung</title></text><rect x="2" y="4" width="12" height="12" fill="#73BA7C" class="highcharts-point"></rect></g><g class="highcharts-legend-item highcharts-column-series highcharts-color-undefined highcharts-series-0" transform="translate(8,139)"><text x="21" y="15" style="color:#333333;font-size:12px;font-weight:normal;cursor:pointer;fill:#333333;" text-anchor="start"><tspan>Sehr grosse </tspan><tspan dy="15" x="21">Bereicherung</tspan><title>Sehr grosse  Bereicherung</title></text><rect x="2" y="4" width="12" height="12" fill="#007A2F" class="highcharts-point"></rect></g></g></g></g><g class="highcharts-axis-labels highcharts-xaxis-labels "><text x="79" style="color:#000000;cursor:default;font-size:11px;fill:#000000;" text-anchor="middle" transform="translate(0,0)" y="369" opacity="1"><tspan>2003</tspan><tspan x="79" dy="14">(N=1497)</tspan></text><text x="131" style="color:#000000;cursor:default;font-size:11px;fill:#000000;" text-anchor="middle" transform="translate(0,0)" y="369" opacity="1"><tspan>2005</tspan><tspan x="131" dy="14">(N=1510)</tspan></text><text x="183" style="color:#000000;cursor:default;font-size:11px;fill:#000000;" text-anchor="middle" transform="translate(0,0)" y="369" opacity="1"><tspan>2007</tspan><tspan x="183" dy="14">(N=1509)</tspan></text><text x="235" style="color:#000000;cursor:default;font-size:11px;fill:#000000;" text-anchor="middle" transform="translate(0,0)" y="369" opacity="1"><tspan>2011</tspan><tspan x="235" dy="14">(N=1516)</tspan></text><text x="287" style="color:#000000;cursor:default;font-size:11px;fill:#000000;" text-anchor="middle" transform="translate(0,0)" y="369" opacity="1"><tspan>2015</tspan><tspan x="287" dy="14">(N=1506)</tspan></text></g><g class="highcharts-axis-labels highcharts-yaxis-labels "><text x="38" style="color:#000000;cursor:default;font-size:11px;fill:#000000;" text-anchor="end" transform="translate(0,0)" y="355" opacity="1"><tspan>0%</tspan></text><text x="38" style="color:#000000;cursor:default;font-size:11px;fill:#000000;" text-anchor="end" transform="translate(0,0)" y="328" opacity="1"><tspan>10%</tspan></text><text x="38" style="color:#000000;cursor:default;font-size:11px;fill:#000000;" text-anchor="end" transform="translate(0,0)" y="302" opacity="1"><tspan>20%</tspan></text><text x="38" style="color:#000000;cursor:default;font-size:11px;fill:#000000;" text-anchor="end" transform="translate(0,0)" y="276" opacity="1"><tspan>30%</tspan></text><text x="38" style="color:#000000;cursor:default;font-size:11px;fill:#000000;" text-anchor="end" transform="translate(0,0)" y="249" opacity="1"><tspan>40%</tspan></text><text x="38" style="color:#000000;cursor:default;font-size:11px;fill:#000000;" text-anchor="end" transform="translate(0,0)" y="223" opacity="1"><tspan>50%</tspan></text><text x="38" style="color:#000000;cursor:default;font-size:11px;fill:#000000;" text-anchor="end" transform="translate(0,0)" y="197" opacity="1"><tspan>60%</tspan></text><text x="38" style="color:#000000;cursor:default;font-size:11px;fill:#000000;" text-anchor="end" transform="translate(0,0)" y="170" opacity="1"><tspan>70%</tspan></text><text x="38" style="color:#000000;cursor:default;font-size:11px;fill:#000000;" text-anchor="end" transform="translate(0,0)" y="144" opacity="1"><tspan>80%</tspan></text><text x="38" style="color:#000000;cursor:default;font-size:11px;fill:#000000;" text-anchor="end" transform="translate(0,0)" y="118" opacity="1"><tspan>90%</tspan></text><text x="38" style="color:#000000;cursor:default;font-size:11px;fill:#000000;" text-anchor="end" transform="translate(0,0)" y="92" opacity="1"><tspan>100%</tspan></text></g><text x="10" class="highcharts-credits" text-anchor="start" style="cursor:default;color:#000000;font-size:10px;fill:#000000;" y="400"><tspan>Quelle: Statistisches Amt Basel-Stadt, kantonale Bevölkerungsbefragung: F18a</tspan></text></svg>

<svg class="highcharts-root" xmlns="http://www.w3.org/2000/svg" viewBox="0 0 485 415" font-family="Arial" font-size="12">
    <defs>
        <clipPath id="a">
            <path fill="none" d="M0 0h260v263H0z"/>
        </clipPath>
    </defs>
    <rect fill="#fbfbfb" class="highcharts-background" width="485" height="415" rx="0" ry="0"/>
    <path fill="none" class="highcharts-plot-background" d="M53 87h260v263H53z"/>
    <g class="highcharts-grid highcharts-xaxis-grid">
        <path fill="none" class="highcharts-grid-line" d="M104.5 87v263m52-263v263m52-263v263m52-263v263m52-263v263M52.5 87v263"/>
    </g>
    <g class="highcharts-grid highcharts-yaxis-grid">
        <path fill="none" stroke="#e6e6e6" class="highcharts-grid-line" d="M53 350.5h260m-260-26h260m-260-27h260m-260-26h260m-260-26h260m-260-26h260m-260-27h260m-260-26h260m-260-26h260m-260-27h260m-260-27h260"/>
    </g>
    <path fill="none" class="highcharts-plot-border" d="M53 87h260v263H53z"/>
    <g class="highcharts-axis highcharts-xaxis">
        <path fill="none" class="highcharts-tick" stroke="#FFF" d="M104.5 350v10m52-10v10m52-10v10m52-10v10m53-10v10m-261-10v10"/>
        <path fill="none" class="highcharts-axis-line" stroke="#ccd6eb" d="M53 350.5h260"/>
    </g>
    <g class="highcharts-axis highcharts-yaxis">
        <path fill="none" class="highcharts-axis-line" d="M53 87v263"/>
    </g>
    <g class="highcharts-series-group">
        <g class="highcharts-series highcharts-series-0 highcharts-column-series highcharts-color-undefined highcharts-tracker" transform="translate(53 87)" clip-path="url(#a)">
            <path fill="#007A2F" class="highcharts-point" stroke="#fff" d="M13.5 204.5h25v59h-25zm52-2h25v61h-25zm52 10h25v51h-25zm52-17h25v68h-25zm52 6h25v62h-25z"/>
        </g>
        <g class="highcharts-series highcharts-series-1 highcharts-column-series highcharts-color-undefined highcharts-tracker" transform="translate(53 87)" clip-path="url(#a)">
            <path fill="#73BA7C" class="highcharts-point" stroke="#fff" d="M13.5 83.5h25v121h-25zm52-5h25v124h-25zm52 4h25v130h-25zm52-9h25v122h-25zm52-10h25v138h-25z"/>
        </g>
        <g class="highcharts-series highcharts-series-2 highcharts-column-series highcharts-color-undefined highcharts-tracker" transform="translate(53 87)" clip-path="url(#a)">
            <path fill="#C8C8C8" class="highcharts-point" stroke="#fff" d="M13.5 72.5h25v11h-25zm52-4h25v10h-25zm52-1h25v15h-25zm52-1h25v7h-25zm52-12h25v9h-25z"/>
        </g>
        <g class="highcharts-series highcharts-series-3 highcharts-column-series highcharts-color-undefined highcharts-tracker" transform="translate(53 87)" clip-path="url(#a)">
            <path fill="#FFBB58" class="highcharts-point" stroke="#fff" d="M13.5 16.5h25v56h-25zm52-2h25v54h-25zm52 0h25v53h-25zm52 0h25v52h-25zm52-5h25v45h-25z"/>
        </g>
        <g class="highcharts-series highcharts-series-4 highcharts-column-series highcharts-color-undefined highcharts-tracker" transform="translate(53 87)" clip-path="url(#a)">
            <path fill="#FF8028" class="highcharts-point" stroke="#fff" d="M13.5-.5h25v17h-25zm52 0h25v15h-25zm52 0h25v15h-25zm52 0h25v15h-25zm52 0h25v10h-25z"/>
        </g>
    </g>
    <text x="10" class="highcharts-title" y="21" color="#000" font-size="14" font-weight="700">
        <tspan>I.50.1.0013 Menschen aus verschiedenen Ländern sind eine</tspan><tspan dy="17" x="10">Bereicherung für den Kanton</tspan><title>I.50.1.0013 Menschen aus verschiedenen Ländern sind eine Bereicherung für den Kanton</title>
    </text>
    <text x="10" class="highcharts-subtitle" y="57" color="#000">
        <tspan>«Im Kanton Basel-Stadt gibt es Menschen aus den verschiedensten Ländern.</tspan><tspan dy="15" x="10">Ist das eine Bereicherung für den Kanton?»</tspan><title>«Im Kanton Basel-Stadt gibt es Menschen aus den verschiedensten Ländern. Ist das eine Bereicherung für den Kanton?»</title>
    </text>
    <g class="highcharts-legend" transform="translate(325 107)">
        <rect fill="none" class="highcharts-legend-box" rx="0" ry="0" width="149" height="181"/>
        <g class="highcharts-legend-item highcharts-column-series highcharts-color-undefined highcharts-series-4">
            <text x="21" y="15" color="#333" font-weight="400" cursor="pointer" fill="#333" transform="translate(8 3)">
                <tspan>Gar keine </tspan><tspan dy="15" x="21">Bereicherung</tspan><title>Gar keine Bereicherung</title>
            </text>
            <path fill="#FF8028" class="highcharts-point" d="M10 7h12v12H10z"/>
        </g>
        <g class="highcharts-legend-item highcharts-column-series highcharts-color-undefined highcharts-series-3">
            <text x="21" y="15" color="#333" font-weight="400" cursor="pointer" fill="#333" transform="translate(8 37)">
                <tspan>Eher nicht so grosse </tspan><tspan dy="15" x="21">Bereicherung</tspan><title>Eher nicht so grosse Bereicherung</title>
            </text>
            <path fill="#FFBB58" class="highcharts-point" d="M10 41h12v12H10z"/>
        </g>
        <g class="highcharts-legend-item highcharts-column-series highcharts-color-undefined highcharts-series-2">
            <text x="21" y="15" color="#333" font-weight="400" cursor="pointer" fill="#333" transform="translate(8 71)">
                <tspan>Weiss nicht /</tspan><tspan x="21" dy="15">keine Angabe</tspan>
            </text>
            <path fill="#C8C8C8" class="highcharts-point" d="M10 75h12v12H10z"/>
        </g>
        <g class="highcharts-legend-item highcharts-column-series highcharts-color-undefined highcharts-series-1">
            <text x="21" y="15" color="#333" font-weight="400" cursor="pointer" fill="#333" transform="translate(8 105)">
                <tspan>Eher grosse </tspan><tspan dy="15" x="21">Bereicherung</tspan><title>Eher grosse Bereicherung</title>
            </text>
            <path fill="#73BA7C" class="highcharts-point" d="M10 109h12v12H10z"/>
        </g>
        <g class="highcharts-legend-item highcharts-column-series highcharts-color-undefined highcharts-series-0">
            <text x="21" y="15" color="#333" font-weight="400" cursor="pointer" fill="#333" transform="translate(8 139)">
                <tspan>Sehr grosse </tspan><tspan dy="15" x="21">Bereicherung</tspan><title>Sehr grosse Bereicherung</title>
            </text>
            <path fill="#007A2F" class="highcharts-point" d="M10 143h12v12H10z"/>
        </g>
    </g>
    <g class="highcharts-axis-labels highcharts-xaxis-labels" text-anchor="middle" color="#000" cursor="default" font-size="11">
        <text x="79" y="369">
            <tspan>2003</tspan><tspan x="79" dy="14">(N=1497)</tspan>
        </text>
        <text x="131" y="369">
            <tspan>2005</tspan><tspan x="131" dy="14">(N=1510)</tspan>
        </text>
        <text x="183" y="369">
            <tspan>2007</tspan><tspan x="183" dy="14">(N=1509)</tspan>
        </text>
        <text x="235" y="369">
            <tspan>2011</tspan><tspan x="235" dy="14">(N=1516)</tspan>
        </text>
        <text x="287" y="369">
            <tspan>2015</tspan><tspan x="287" dy="14">(N=1506)</tspan>
        </text>
    </g>
    <g class="highcharts-axis-labels highcharts-yaxis-labels" text-anchor="end" color="#000" cursor="default" font-size="11">
        <text x="38" y="355">
            <tspan>0%</tspan>
        </text>
        <text x="38" y="328">
            <tspan>10%</tspan>
        </text>
        <text x="38" y="302">
            <tspan>20%</tspan>
        </text>
        <text x="38" y="276">
            <tspan>30%</tspan>
        </text>
        <text x="38" y="249">
            <tspan>40%</tspan>
        </text>
        <text x="38" y="223">
            <tspan>50%</tspan>
        </text>
        <text x="38" y="197">
            <tspan>60%</tspan>
        </text>
        <text x="38" y="170">
            <tspan>70%</tspan>
        </text>
        <text x="38" y="144">
            <tspan>80%</tspan>
        </text>
        <text x="38" y="118">
            <tspan>90%</tspan>
        </text>
        <text x="38" y="92">
            <tspan>100%</tspan>
        </text>
    </g>
    <text x="10" class="highcharts-credits" y="400" cursor="default" color="#000" font-size="10">
        <tspan>Quelle: Statistisches Amt Basel-Stadt, kantonale Bevölkerungsbefragung: F18a</tspan>
    </text>
</svg>
